X:378
T: Sonntagsfreud (4-77), S. 98
N: P0648
O: Lothringen
S: PINCK, Louis: Verklingende Weisen Bd 4, Kassel 1939]
R: ???, Liebe, Geselligkeit, Tanz]
M: 2/4
L: 1/16
K: F
CC | F2F2G2G2 | c2c2A2
FF | G2G2c2BG | F4z2
CC | F2F2G2GG | c2c2A2
FF | G2G2c2BG | F4z2
AA | ccB2G2B2 | d2ccA2
FA | ccB2GGAG | F4z2

@@@ Tune index: 7928
